X: 26564
T: Mick Carr's Highland
R: strathspey
M: 4/4
K: Dmajor
|:F2D>F A>BA>G|F2D>F E<A,C>E|F2D>F A>BA>F|1 A,>CE>G F<DD>G:|2 A,>CE>G F<DD>F||
A>df<d g>ef>d|A<df>d c<ee>c|A>df<d g>ef>d|(3Bcd e>g f<dd>B|
A>df<d g>ef>d|A<df>d c<ee>a|(3fga e>f d>fc>A|(3Bcd e>g f>dA>G|

